!!!OTL: Lian yihetuan
!!!ARE: Asia, China,ÿHebei Yutian
!! IV, 33
!!!SCT: C1916
!!!YEM: Copyright 1995, estate of Helmut Schaffrath.
**kern
*ICvox
*Ivox
*M2/4
*k[b-]
*F:
{8r
8cc
8a
8cc
=1
8cc
8a
4ff
=2
8r
8cc
8a
8cc
=3
8.a
16g
8f
8d}
=4
{8r
8cc
8a
16a
16g
=5
8.f
16d
4f
=6
8.f
16d
8f
8f
=7
8.f
16d
4c}
=8
{8d
16A
16c
4d
=9
8.c
16A
8c
8c
=10
4g
4d}
=11
{8d
16A
16c
4d
=12
8.d
16A
4c
=13
8f
16d
16f
8d
8d
=14
8A
16c
16A
4f}
=15
{8f
16d
16f
8d
8d
=16
8a
8ff
8dd
8dd
=17
8r
8cc
8a
8cc
=18
8.a
16a
8g
8f
=19
8.f
16d
8f
16f
16g
=20
8.f
16d
4c}
==
!!!AGN: Xiaodiao
!!!AMT: simple duple
!!!AIN: vox
!!!EED: Helmut Schaffrath
!!!EEV: 1.0
*-
